X:1
T: Courtney's Favourite
C:
R:Jig
Q:180
K:D
M:6/8
L:1/16
E2|B2E2E2 B2E2E2|B2A2Bc d2A2F2|B2E2E2 B2E2E2|A4G2 F2E2D2|B2E2E2 c2E2E2|d2E2E2 c2E2E2|B2A2Bc d2c2B2|A2B2G2 F2E2D2|
B2E2E2 B2E2E2|B2A2Bc d2A2F2|B2E2E2 B2E2E2|A4G2 F2E2D2|B2E2E2 c2E2E2|d2E2E2 c2E2E2|B2e2c2 d2c2b2|a4g2 f2g2e2|
D2F2A2 d4d2|B2A2Bc d2A2F2|D2F2A2 d2c2d2|B2A2G2 F2E2D2|D2F2A2 A2B2d2|B2e2e2 e2f2g2|f2e2d2 e4d2|B2A2G2 F2E2D2|
D2F2A2 d4d2|B2A2Bc d2A2F2|D2F2A2 d2c2d2|B2A2G2 F2E2D2|D2F2A2 A2B2d2|B2e2e2 e2f2g2|f2e2d2 e4d2|B2A2G2 F2E2D2||

